X:825
T:Xanadu
C:Charles Bolton, 1984
L:1/4
M:2/2
S:Colin Hume's website,  colinhume.com  - chords can also be printed below the stave.
Q:1/2=105
H:For John Lagden
K:C
P:A
|: "C"Gc- c"G"G | "Em"E/F/G "Am"C2 | "Am"A/B/c- "Am/C"cA- | "Dm"Ad "G7"BG |\
"C"Gc- c"G"G | "Em"E/F/G "Am"C2 | "Am/C"e/d/"D"c "G"B/A/G | "D7"D^F "G"G2 :|
P:B
|: "G"dg- g"D7"d | "G"B/c/d "G7"f2 | "E"ef/e/ d/c/B- | "E7"Be "Am"cA | "C7"E/F/G "F"F2- | "Dm"FA "Em"G/A/B |
"F"A/B/c- "Am/C"cA- | "Dm"Ad "G7"BG | "C/E"gc- "Am"ca- | "F"ag/f/ "C/G"e/d/c/B/ | "F/A"A/B/c- "Dm"cd | "G7"GB "C"c2 :|

